resources/svg/major-checklist.svg

<svg xmlns="http://www.w3.org/2000/svg" viewBox="0 0 20 20" fill="currentColor"><path d="M10 0a2 2 0 0 0-2 2h-4.5a1.5 1.5 0 0 0-1.5 1.5v15a1.5 1.5 0 0 0 1.5 1.5h13a1.5 1.5 0 0 0 1.5-1.5v-15a1.5 1.5 0 0 0-1.5-1.5h-4.5a2 2 0 0 0-2-2zm-4 6v-.5a1.5 1.5 0 0 1 1.5-1.5h5a1.5 1.5 0 0 1 1.5 1.5v.5h-8zm7.707 3.293a1 1 0 0 1 0 1.414l-4 4a1 1 0 0 1-1.414 0l-2-2a1 1 0 1 1 1.414-1.414l1.293 1.293 3.293-3.293a1 1 0 0 1 1.414 0z"/></svg>

<svg xmlns="http://www.w3.org/2000/svg" viewBox="0 0 20 20" fill="currentColor"><path d="M10 0a2 2 0 0 0-2 2H3.5A1.5 1.5 0 0 0 2 3.5v15A1.5 1.5 0 0 0 3.5 20h13a1.5 1.5 0 0 0 1.5-1.5v-15A1.5 1.5 0 0 0 16.5 2H12a2 2 0 0 0-2-2zM6 6v-.5A1.5 1.5 0 0 1 7.5 4h5A1.5 1.5 0 0 1 14 5.5V6H6zm7.707 3.293a1 1 0 0 1 0 1.414l-4 4a1 1 0 0 1-1.414 0l-2-2a1 1 0 1 1 1.414-1.414L9 12.586l3.293-3.293a1 1 0 0 1 1.414 0z"/></svg>
